polaris-icons/icons/newicons/SoftPackMajor.svg

<svg width="20" height="20" viewBox="0 0 20 20" fill="none" xmlns="http://www.w3.org/2000/svg">
<path d="M8.75 5.25C8.33579 5.25 8 5.58579 8 6C8 6.41421 8.33579 6.75 8.75 6.75H11.25C11.6642 6.75 12 6.41421 12 6C12 5.58579 11.6642 5.25 11.25 5.25H8.75Z" fill="black"/>
<path d="M7 11.75C7 11.3358 7.33579 11 7.75 11H10.25C10.6642 11 11 11.3358 11 11.75C11 12.1642 10.6642 12.5 10.25 12.5H7.75C7.33579 12.5 7 12.1642 7 11.75Z" fill="black"/>
<path d="M7.75 13.5C7.33579 13.5 7 13.8358 7 14.25C7 14.6642 7.33579 15 7.75 15H12.25C12.6642 15 13 14.6642 13 14.25C13 13.8358 12.6642 13.5 12.25 13.5H7.75Z" fill="black"/>
<path fill-rule="evenodd" clip-rule="evenodd" d="M4 4C4 2.89543 4.89543 2 6 2H14C15.1046 2 16 2.89543 16 4V16C16 17.1046 15.1046 18 14 18H6C4.89543 18 4 17.1046 4 16V4ZM6 3.5H14C14.2761 3.5 14.5 3.72386 14.5 4V5.25H13.75C13.3358 5.25 13 5.58579 13 6C13 6.41421 13.3358 6.75 13.75 6.75H14.5V16C14.5 16.2761 14.2761 16.5 14 16.5H6C5.72386 16.5 5.5 16.2761 5.5 16V6.75H6.25C6.66421 6.75 7 6.41421 7 6C7 5.58579 6.66421 5.25 6.25 5.25H5.5V4C5.5 3.72386 5.72386 3.5 6 3.5Z" fill="black"/>
</svg>

<svg viewBox="0 0 20 20" fill="none" xmlns="http://www.w3.org/2000/svg"><path d="M8.75 5.25a.75.75 0 0 0 0 1.5h2.5a.75.75 0 0 0 0-1.5h-2.5Z" fill="#5C5F62"/><path d="M7 11.75a.75.75 0 0 1 .75-.75h2.5a.75.75 0 0 1 0 1.5h-2.5a.75.75 0 0 1-.75-.75Z" fill="#5C5F62"/><path d="M7.75 13.5a.75.75 0 0 0 0 1.5h4.5a.75.75 0 0 0 0-1.5h-4.5Z" fill="#5C5F62"/><path fill-rule="evenodd" clip-rule="evenodd" d="M4 4a2 2 0 0 1 2-2h8a2 2 0 0 1 2 2v12a2 2 0 0 1-2 2h-8a2 2 0 0 1-2-2v-12Zm2-.5h8a.5.5 0 0 1 .5.5v1.25h-.75a.75.75 0 0 0 0 1.5h.75v9.25a.5.5 0 0 1-.5.5h-8a.5.5 0 0 1-.5-.5v-9.25h.75a.75.75 0 0 0 0-1.5h-.75v-1.25a.5.5 0 0 1 .5-.5Z" fill="#5C5F62"/></svg>
